dist/svg/static/vimeo-small.svg

<svg xmlns="http://www.w3.org/2000/svg" width="24" height="24" viewBox="0 0 24 24"><path d="M17.994 8.98q-.087 1.897-2.652 5.196-2.65 3.445-4.485 3.446-1.137 0-1.924-2.099l-1.049-3.847Q7.301 9.58 6.632 9.578a4.022 4.022 0 0 0-1.02.612L5 9.402q.962-.845 1.897-1.691a4.303 4.303 0 0 1 1.927-1.168q1.517-.145 1.867 2.075.38 2.395.526 2.979.438 1.987.963 1.987a2.456 2.456 0 0 0 1.226-1.29 5.079 5.079 0 0 0 .875-1.963.837.837 0 0 0-.875-1.113 2.437 2.437 0 0 0-.962.213q.958-3.139 3.661-3.05 2.004.058 1.889 2.598z" fill="currentColor"/></svg>

<?xml version="1.0" encoding="UTF-8" standalone="no"?>
<svg width="24px" height="24px" viewBox="0 0 24 24" version="1.1" xmlns="http://www.w3.org/2000/svg" xmlns:xlink="http://www.w3.org/1999/xlink">
    <!-- Generator: sketchtool 46.2 (44496) - http://www.bohemiancoding.com/sketch -->
    <title>vimeo-small</title>
    <desc>Created with sketchtool.</desc>
    <defs></defs>
    <g id="icons-published" stroke="none" stroke-width="1" fill="none" fill-rule="evenodd">
        <g id="briefing" transform="translate(-2660.000000, -2330.000000)"></g>
        <g id="vimeo-small" fill-rule="nonzero" fill="#000000">
            <path d="M18,9 C17.9,10.3 17.1,12 15.3,14.2 C13.5,16.5 12,17.6 10.8,17.6 C10,17.6 9.4,16.9 8.9,15.5 L7.9,11.7 C7.5,10.3 7.1,9.6 6.6,9.6 C6.2,9.8 5.9,10 5.6,10.2 L5,9.4 C5.6,8.8 6.3,8.3 6.9,7.7 C7.4,7.1 8.1,6.7 8.8,6.5 C9.8,6.4 10.4,7.1 10.7,8.6 C11,10.2 11.1,11.2 11.2,11.6 C11.5,12.9 11.8,13.6 12.2,13.6 C12.8,13.3 13.2,12.9 13.4,12.3 C13.8,11.7 14.1,11 14.3,10.3 C14.5,9.9 14.2,9.4 13.8,9.2 C13.7,9.2 13.6,9.1 13.4,9.2 C13.1,9.2 12.7,9.3 12.4,9.4 C13,7.3 14.3,6.3 16.1,6.3 C17.4,6.4 18.1,7.3 18,9 L18,9 Z" id="Shape"></path>
        </g>
    </g>
</svg>
